app/images/icon_location.svg

<svg width="12" height="20" viewBox="0 0 12 20" fill="none" xmlns="http://www.w3.org/2000/svg">
<path fill-rule="evenodd" clip-rule="evenodd" d="M6.00014 1.59949C5.52737 1.59949 5.05923 1.6926 4.62245 1.87353C4.18566 2.05445 3.78879 2.31963 3.4545 2.65393C3.1202 2.98822 2.85502 3.38509 2.6741 3.82188C2.49317 4.25866 2.40006 4.7268 2.40006 5.19957C2.40006 5.67234 2.49317 6.14048 2.6741 6.57726C2.85502 7.01404 3.1202 7.41091 3.4545 7.74521C3.78879 8.07951 4.18566 8.34469 4.62245 8.52561C5.05923 8.70653 5.52737 8.79965 6.00014 8.79965C6.95494 8.79965 7.87064 8.42036 8.54578 7.74521C9.22093 7.07007 9.60022 6.15437 9.60022 5.19957C9.60022 4.24477 9.22093 3.32907 8.54578 2.65393C7.87064 1.97878 6.95494 1.59949 6.00014 1.59949ZM1.20003 5.19957C1.20011 4.27582 1.46674 3.37171 1.96792 2.59574C2.46909 1.81976 3.18353 1.20488 4.0255 0.824875C4.86747 0.444868 5.8012 0.315878 6.71466 0.453383C7.62812 0.590887 8.4825 0.989045 9.17528 1.60008C9.86807 2.21112 10.3698 3.00907 10.6204 3.8982C10.8709 4.78733 10.8595 5.72987 10.5877 6.61271C10.3158 7.49555 9.79497 8.28119 9.08768 8.87537C8.38038 9.46954 7.51666 9.84701 6.60015 9.96248V16.5998C6.60015 16.759 6.53694 16.9116 6.42441 17.0241C6.31189 17.1366 6.15927 17.1998 6.00014 17.1998C5.84101 17.1998 5.68839 17.1366 5.57587 17.0241C5.46334 16.9116 5.40013 16.759 5.40013 16.5998V9.96368C4.23966 9.81748 3.1725 9.25259 2.39911 8.37512C1.62573 7.49766 1.19933 6.36801 1.20003 5.19837V5.19957ZM4.1917 15.4886C4.21772 15.6455 4.18039 15.8063 4.08791 15.9357C3.99542 16.0651 3.85536 16.1525 3.69849 16.1786C2.84407 16.3202 2.16245 16.5326 1.71244 16.7702C1.54713 16.8497 1.39689 16.9573 1.26843 17.0882C1.23939 17.1199 1.21623 17.1565 1.20003 17.1962V17.1998L1.20243 17.2094C1.20715 17.2234 1.2136 17.2367 1.22163 17.249C1.26899 17.3185 1.32783 17.3794 1.39563 17.4291C1.59364 17.5851 1.91764 17.7531 2.37125 17.9031C3.27248 18.2031 4.55531 18.3999 6.00014 18.3999C7.44497 18.3999 8.7278 18.2043 9.62902 17.9031C10.0826 17.7519 10.4066 17.5851 10.6046 17.4291C10.6728 17.3794 10.7321 17.3186 10.7799 17.249C10.7875 17.2366 10.7935 17.2233 10.7979 17.2094L10.8003 17.1998V17.195C10.7841 17.1553 10.7609 17.1187 10.7318 17.087C10.6033 16.9565 10.4531 16.8493 10.2878 16.7702C9.83663 16.5326 9.15621 16.3202 8.30179 16.1786C8.2222 16.1678 8.14559 16.1412 8.07649 16.1002C8.00739 16.0593 7.94722 16.0049 7.89954 15.9403C7.85185 15.8756 7.81763 15.8021 7.7989 15.724C7.78016 15.6459 7.7773 15.5648 7.79048 15.4856C7.80366 15.4064 7.83261 15.3306 7.87561 15.2628C7.91862 15.1949 7.97481 15.1364 8.04084 15.0907C8.10688 15.045 8.18142 15.013 8.26005 14.9966C8.33868 14.9803 8.4198 14.9798 8.4986 14.9954C9.42262 15.1478 10.241 15.389 10.8471 15.7082C11.4003 15.9998 12.0003 16.4798 12.0003 17.1998C12.0003 17.7111 11.6883 18.1023 11.3475 18.3723C10.9995 18.6459 10.5314 18.8679 10.0082 19.0419C8.95461 19.3935 7.53737 19.5999 6.00014 19.5999C4.4629 19.5999 3.04567 19.3935 1.99205 19.0419C1.46883 18.8679 1.00082 18.6459 0.652815 18.3723C0.312007 18.1023 0 17.7111 0 17.1998C0 16.481 0.600014 15.9998 1.15323 15.7082C1.75924 15.389 2.57766 15.1478 3.50168 14.9954C3.65858 14.9694 3.81939 15.0067 3.94877 15.0992C4.07816 15.1917 4.16553 15.3317 4.1917 15.4886Z" fill="#454C5C"/>
</svg>

<svg width="12" height="20" viewBox="0 0 12 20" fill="none" xmlns="http://www.w3.org/2000/svg">
  <path fill-rule="evenodd" clip-rule="evenodd" d="M6 1.6a3.6 3.6 0 1 0 0 7.2 3.6 3.6 0 0 0 0-7.2ZM1.2 5.2a4.8 4.8 0 1 1 5.4 4.762V16.6a.6.6 0 1 1-1.2 0V9.964a4.8 4.8 0 0 1-4.2-4.766V5.2Zm2.992 10.289a.6.6 0 0 1-.494.69c-.854.141-1.536.354-1.986.591-.165.08-.315.187-.444.318a.363.363 0 0 0-.068.108v.004l.002.01a.174.174 0 0 0 .02.039.74.74 0 0 0 .174.18c.198.156.522.324.975.474.901.3 2.184.497 3.63.497 1.444 0 2.727-.196 3.628-.497.454-.151.778-.318.976-.474a.744.744 0 0 0 .175-.18.18.18 0 0 0 .018-.04l.002-.01v-.004a.362.362 0 0 0-.068-.108 1.58 1.58 0 0 0-.444-.317c-.451-.237-1.132-.45-1.986-.591a.6.6 0 1 1 .197-1.184c.924.153 1.742.394 2.348.713C11.4 16 12 16.48 12 17.2c0 .511-.312.902-.652 1.172-.349.274-.817.496-1.34.67-1.053.351-2.47.558-4.008.558-1.537 0-2.954-.207-4.008-.558-.523-.174-.991-.396-1.34-.67-.34-.27-.652-.66-.652-1.172 0-.719.6-1.2 1.153-1.492.606-.319 1.425-.56 2.349-.713a.6.6 0 0 1 .69.494Z" fill="#454C5C"/>
</svg>
